X:1
T:Title
%%score { ( 1 4 ) | ( 2 3 ) }
L:1/8
M:6/8
K:Bb
V:1 treble nm="Grand Piano"
V:4 treble 
V:2 bass 
V:3 bass 
V:1
 z3 z2[Q:1/4=81] [B,D]/[CE]/ | [DF][_D=E][=DF] [_EG]2 [DF] | [B,D]3- [B,D]2 [DF]/[DF]/ | %3
 [DB][EA][FB] [Gc]2 [GB] | G3- G2 G/G/ | ACD EF[EG] |[M:5/8] D3- [DB]2 |[M:1/8] [DB]/[DB]/ | %8
[M:3/4] [FA][Fc] [DGB] [CFA]2 [B,=EG] |[M:5/8] [A,F]-[A,F]- [A,F]3 |[M:1/8] [B,DF] | %11
[M:3/4] [DB][DA] [DG][DF] [DG][F,D] | [B,DF]2 [_A,DF] [=A,EF]3 | cA G F2 c | B2- [EB] [DB]2 [DF] | %15
 G^F GB AG | [DF]2 [DG] [DA]2 [DB] | [Fc][G=e] [Bd][Ac] [GB][=EG] | [Ec]3 [EF]2 [DF] | %19
 [DB][DA] [DG][DF] [DG][B,D] | [DF]2 [DF] [EF]2 [EF]/[EF]/ | [DB]2 [DB] [Gc]2 [Gc] | %22
 [^Fd]4- [Fd][Fd] | [Ge][Ge] [Ge] [Gd]2 [Gd] |[M:7/8] [Gc][Gc][Gc] G3 A/B/ |[M:3/4] F=E F d2 c | %26
[M:5/8] B2- [EB-] [DB]2 |] %27
V:2
 z3 z2 [B,,F,]/[B,,F,]/ | [B,,B,][B,,B,][B,,B,] [B,,B,]2 [B,,B,] | %2
 [B,,F,]3- [B,,F,]2 [B,,B,]/[B,,B,]/ | [B,,F,][C,F,][D,B,] [E,B,]2 [E,B,] | %4
 [E,B,E]3- [E,B,E]2 [E,B,_D]/[E,B,D]/ | [F,A,C][E,F,A,][D,F,B,] F,-[D,F,B,][C,F,] | %6
[M:5/8] z z2 F,2 |[M:1/8] [B,,F,]/[B,,F,]/ |[M:3/4] [C,C][C,A,] C, C,2 C, |[M:5/8] z z2 E2 | %10
[M:1/8] B,, |[M:3/4] [B,,F,][B,,F,] [B,,F,][B,,B,] [B,,B,]B,, | B,,2 =B,, C,3 | %13
 [F,A,E][F,CE] [F,B,E] [F,A,E]2 [F,A,E] | z2 G, [B,,F,]2 [B,,B,] | %15
 [E,B,E][E,A,E] [E,B,E][E,E]- [E,A,E][E,B,E] | [B,,B,]2 [B,,B,] [B,,F,]2 [B,,B,] | %17
 [C,A,][C,C] [C,C] [C,C]2 [C,B,] | [F,A,]3 [F,A,]2 [B,,B,] | %19
 [B,,F,][B,,F,] [B,,F,][B,,B,] [B,,B,][B,,F,] | [B,,B,]2 [=B,,_A,] [C,=A,]2 [F,A,]/[F,A,]/ | %21
 [B,,B,]2 [B,,B,] [E,B,]2 [E,G,] | [D,A,]4- [D,A,][D,A,] | [C,C][C,C] [C,C] [D,=B,]2 [D,B,] | %24
[M:7/8] [E,C][E,C][E,C] [E,B,E]3 [=E,G,_D] |[M:3/4] [F,B,D][^F,B,_D] [=F,B,=D] [G,B,=E]2 [F,A,_E] | %26
[M:5/8] z2 G, F,2 |] %27
V:3
 x6 | x6 | x6 | x6 | x6 | z3 .[C,A,]3 |[M:5/8] B,,-B,,- B,,3 |[M:1/8] x |[M:3/4] x6 | %9
[M:5/8] F,-F,- F,3 |[M:1/8] x |[M:3/4] x6 | x6 | x6 | B,,4 z2 | z2 z G, z2 | x6 | x6 | x6 | x6 | %20
 x6 | x6 | x6 | x6 |[M:7/8] x7 |[M:3/4] x6 |[M:5/8] B,,-B,,- B,,3 |] %27
V:4
 x6 | x6 | x6 | x6 | x6 | x6 |[M:5/8] [B,F]3 z2 |[M:1/8] x |[M:3/4] x6 |[M:5/8] x5 |[M:1/8] x | %11
[M:3/4] x6 | x6 | x6 | [B,D]2 z2 z2 | x6 | x6 | x6 | x6 | x6 | x6 | x6 | x6 | x6 |[M:7/8] x7 | %25
[M:3/4] x6 |[M:5/8] [B,D]2 z z2 |] %27

